!!!!SEGMENT: pl-sa--552-a-ix-32--020_anonim--polonez-alexandra.krn
!!!cenid: 18xx:531
!!!COM: Anonim
!!!COM-rism: pe30004985
!!!CDT:
!!!CNT:
!!!OTL: Polonez Alexandra
!!!PDT:
!!!AGN: Secular; Polonaise
!!!SMS-siglum: PL-SA
!!!SMS-shelfmark: 552/A IX 32
!!!NIFC-rismID: 1001069533
!!!URL-scan: http://bc.bdsandomierz.pl/dlibra/publication/1308/edition/1276/content
!!!ONB-nifc: Str. 11 (s. 4) – str. 12 (s. 2)
!!!SMS-variant:
!!!SMS-altvar:
**kern	**kern
*part2	*part1
*staff2	*staff1
*I'keyb	*
*clefF4	*clefG2
*k[f#c#]	*k[f#c#]
*D:	*D:
*M3/4	*M3/4
=1	=1
!	!LO:TX:a:i:t=Polonez\nAlexandra
!LO:TX:a:t=P:problem:metrum z kreską ułamkową, tylko na dolnej pięciolini	!LO:TX:a:t=P:problem: tytuł przed akoladą, nachodzi na pierwszy system
8D\L	8dd\L
8AA\J	8a\J
*rep	*
8D\L	8dd\L
8AA\J	8a\J
*Xrep	*
*rep	*
8D\L	8dd\L
8AA\J	8a\J
*Xrep	*
=2	=2
*rep	*
8D\L	16dd\LL
.	16ff#\JJ
8AA\J	8a\
*Xrep	*
*rep	*rep
8D\L	16dd\LL
.	16ff#\JJ
8AA\J	8a\
*Xrep	*Xrep
*rep	*rep
8D\L	16dd\LL
.	16ff#\JJ
8AA\J	8a\
*Xrep	*Xrep
=3	=3
!LO:TX:a:t=P:problem:mixed beam	!
16DD/LL	8ddd\L
16D\	.
16C#\	16ddd\L
16D\JJ	16ddd\JJ
*rep	*
16DD/LL	8ddd\L
16D\	.
16C#\	8ccc#\J
16D\JJ	.
*Xrep	*
*rep	*
16DD/LL	8bb\L
16D\	.
!	!LO:TX:a:t=3
!	!LO:TX:a:t=P:problem: cyfra nad kreską taktową
16C#\	8aa\J
!LO:TX:a:t=3	!
!LO:TX:a:t=P:problem: cyfra nad kreską taktową	!
16D\JJ	.
*Xrep	*
=4	=4
*rep	*
!LO:TX:a:t=P:problem=brak cyfr nad znakami repetycji	!
16DD/LL	8ddd\L
16D\	.
16C#\	16ddd\L
16D\JJ	16ddd\JJ
16DD/LL	8ddd\L
16D\	.
16C#\	8ccc#\J
16D\JJ	.
16DD/LL	8bb\L
16D\	.
16C#\	8aa\J
16D\JJ	.
*Xrep	*
=5	=5
!LO:TX:a:t=3	!LO:TX:a:t=3
!LO:TX:a:t=P:problem:cyfra z kreską taktową	!LO:TX:a:t=P:problem:cyfra z kreską taktową, przed pierwszą nutą
16DD/LL	8bb\L
16D\	.
16C#\	8aa\
16D\JJ	.
16DD/LL	8bb\
16D\	.
16C#\	8ccc#\J
16D\JJ	.
16DD/LL	4ddd\
16D\	.
16C#\	.
16D\JJ	.
*Xrep	*
=6	=6
*rep	*rscale:1/2
!	!LO:TX:a:t=P:problem: przekreślona "4" przed 8gg
16DD/LL	8gg\L
16D\	.
16C#\	8ff#\
16D\JJ	.
!	!LO:TX:a:i:t=raz
16DD/LL	8gg\
16D\	.
16C#\	8aa\J
16D\JJ	.
*	*rscale:1
16DD/LL	4ff#\
16D\	.
16C#\	.
16D\JJ	.
*Xrep	*
=7	=7
*rep	*
16DD/LL	8ddd\L
16D\	.
16C#\	16ddd\L
16D\JJ	16ddd\JJ
!	!LO:TX:a:t=d
!	!LO:SIC:s=8ddd
16DD/LL	8eee\L
16D\	.
16C#\	8ccc#\J
16D\JJ	.
16DD/LL	8bb\L
16D\	.
16C#\	8aa\J
16D\JJ	.
*Xrep	*
=8	=8
*rep	*
16DD/LL	8bb\L
16D\	.
16C#\	8aa\
16D\JJ	.
16DD/LL	8bb\
16D\	.
16C#\	8ccc#\J
16D\JJ	.
16DD/LL	4ddd\
16D\	.
16C#\	.
16D\JJ	.
*Xrep	*
=9	=9
*rep	*
!	!LO:N:vis=8
16DD/LL	8.ddd\L
16D\	.
16C#\	.
*	*Xtuplet
16D\JJ	48gg\LL
.	48bb\
.	48ccc#\JJJ
*	*tuplet
16DD/LL	8ddd\L
16D\	.
16C#\	8ddd\J
16D\JJ	.
16DD/LL	8aa\L
16D\	.
16C#\	8ff#\J
16D\JJ	.
*Xrep	*
!!LO:LB:g=original
=10	=10
!LO:TX:a:t=P:problem:nieczytelna wysokość GG/AA	!
!LO:TX:a:t=P:problem:mixed beam	!
!LO:SIC:s=8AA	!
8GG/L	8aaL 8ee 8cc#\
!LO:TX:a:t=P:problem:nieczytelna wysokość G/A	!
8A\	16aaL 16ee 16cc#\
.	16aaJJ 16ee 16cc#\
8E\	8aaL 8ee 8cc#\
8C#\J	8aaJ 8ee 8cc#\
!LO:TX:a:t=P:problem:nieczytelna wysokość GG/AA	!
4AA/	4aa 4ee 4cc#\
=11||	=11||
8F#L 8D\	8dd\L
8A\J	8ff#\J
*rep	*
8F#L 8D\	4.aa\
8A\J	.
*Xrep	*
*rep	*
8F#L 8D\	.
8A\J	8ff#\
*Xrep	*
=12	=12
8GL 8E\	16gg\LL
.	16ff#\
8B\J	16gg\
.	16ee\JJ
8EL 8GG\	4.cc#\
8A\J	.
*rep	*
8EL 8GG\	.
8A\J	8a\
*Xrep	*
=13	=13
8F#L 8D\	(>8dd\L
8A\J	8cc#\)
*rep	*
8F#L 8D\	[>8dd\
8A\J	8dd\]
*Xrep	*
*rep	*
8F#L 8D\	(>8ee\
8A\J	8gg\J)
*Xrep	*
=14	=14
8EL 8GG\	8ff#\L
8A\J	16a\L
.	16a\JJ
*rep	*
8EL 8GG\	8a\L
8A\J	8a\J
*Xrep	*
*rep	*
8EL 8GG\	4a\
8A\J	.
*Xrep	*
=15	=15
8F#L 8D\	8dd\L
8A\J	8ff#\J
*rep	*
8F#L 8D\	4.aa\
8A\J	.
*Xrep	*
*rep	*
8F#L 8D\	.
8A\J	8ff#\
*Xrep	*
=16	=16
8GL 8E\	16gg\LL
.	16ff#\
8B\J	16gg\
.	16ee\JJ
8EL 8GG\	4.cc#\
8A\J	.
*rep	*
8EL 8GG\	.
8A\J	8a\
*Xrep	*
=17	=17
!LO:N:vis=8.	!
4F#\L 4D	8dd\
.	4dd\
!LO:N:vis=8.	!
4A\J	.
!	!LO:TX:a:t=c
!	!LO:SIC:s=8cc#
.	8dd\
8A 8D\L	8b\L
8B\J	8bb\J
=18	=18
8GL 8D\	16aa\LL
.	16gg\
8B\J	16ff#\
.	16ee\JJ
!LO:N:vis=8	!
.	8qee/
*	*2\right
4r	2dd\
!LO:TX:a:t=P:problem:mixed beam	!
8qD/	.
8d\L	.
8D/J	.
=19:|!|:	=19:|!|:
16D\LL	8ff#\L
16A\	.
16F#\	8ff#\J
16A\JJ	.
*rep	*
*	*rscale:2
16D\LL	8.ff#\
16A\	.
16F#\	.
!	!LO:TUP:a:problem:klamra łukowa
16A\JJ	48aa\LL
*Xrep	*
.	48gg\
.	48ff#\JJ
*	*rscale:1
16E\LL	16ee\LL
16A\	16gg\
16G\	16ff#\
16A\JJ	16ee\JJ
!!LO:LB:g=original
=20	=20
16D\LL	8dd\L
16A\	.
16F#\	8dd\J
16A\JJ	.
*rep	*
*	*rscale:2
16D\LL	8.dd\
16A\	.
16F#\	.
!	!LO:TUP:a:problem:klamra łukowa
16A\JJ	48ff#\LL
*Xrep	*
.	48ee\
.	48dd\JJ
*	*rscale:1
!LO:TX:a:t=P:problem:mixed beam	!
16GG/LL	16cc#\LL
16A\	16ee\
16E\	16dd\
16A\JJ	16cc#\JJ
=21	=21
16D\LL	8b\L
16B\	.
16G\	16b\L
16B\JJ	16b\JJ
*rep	*
16D\LL	8b\L
16B\	.
16G\	8b\J
16B\JJ	.
*Xrep	*
16E\LL	4cc#\
16c#\	.
16G\	.
16c#\JJ	.
=22	=22
16D\LL	8b\L
16B\	.
16G\	16b\L
16B\JJ	16b\JJ
*rep	*
16D\LL	8b\L
16B\	.
16G\	8b\J
16B\JJ	.
*Xrep	*
16D\LL	4a#X\
16B-X\	.
16G\	.
16B-\JJ	.
=23	=23
16D\LL	8b\L
16BnX\	.
16G\	16b\L
16B\JJ	16b\JJ
*rep	*
16D\LL	8cc#\L
16B\	.
16G\	8dd\
16B\JJ	.
*Xrep	*
16E\LL	8ee\
16A\	.
16G\	8gg\J
16A\JJ	.
=24	=24
16D\LL	16ff#\LL
16A\	16ee\
16F#\	16dd\
16A\JJ	16cc#\JJ
.	8qcc#/
4r	2dd\
!LO:TX:a:t=P:problem:mixed beam	!
8qAA/	.
8D\L	.
8DD/J	.
!	!LO:TX:b:i:t=Polones Da Capo.
!	!LO:TX:b:t=P:problem:komentarz za kreską między pięcioliniami
!!LO:PB:g=original
=25||	=25||
*M3/4	*
!LO:TX:a:t=P:problem:metrum z kreską ułamkową, tylko na dolnej pięciolini	!LO:TX:a:i:t=Trio
!	!LO:TX:a:t=P:problem:Trio przed akoladą na wysokości górnej pięciolinii
16D\LL	4.aa\
16A\	.
16F#\	.
16A\JJ	.
*rep	*
16D\LL	.
16A\	.
16F#\	8bb\
16A\JJ	.
*Xrep	*
*rep	*
16D\LL	8ff#\L
16A\	.
16F#\	8bb\J
16A\JJ	.
*Xrep	*
=26	=26
16C#\LL	8aa\L
16G\	.
16E\	8gg\J
16G\JJ	.
*rep	*
16C#\LL	4.gg\
16G\	.
16E\	.
16G\JJ	.
*Xrep	*
*rep	*
16C#\LL	.
16G\	.
16E\	8ee\
16G\JJ	.
*Xrep	*
=27	=27
*rep	*
16C#\LL	8gg\
16G\	.
!	!LO:N:vis=4.gg
16E\	4gg\
16G\JJ	.
*Xrep	*
*rep	*
16C#\LL	.
16G\	.
16E\	16ff#\LL
16G\JJ	16gg\JJ
*Xrep	*
*rep	*
16C#\LL	16aa\LL
16G\	16gg\
16E\	16ff#\
16G\JJ	16ee\JJ
*Xrep	*
=28	=28
16D\LL	8gg\L
16A\	.
16F#\	8ff#\J
16A\JJ	.
*rep	*
16D\LL	4ff#\
16A\	.
16F#\	.
16A\JJ	.
*Xrep	*
*rep	*
!	!LO:N:vis=8
16D\LL	4r
16A\	.
16F#\	.
16A\JJ	.
*Xrep	*
=29	=29
16C#\LL	16ff#\LL
16A\	16ee\
16E\	16ee\
16A\JJ	16ee\JJ
*rep	*
!	!LO:N:vis=8
16C#\LL	4ee\L
16A\	.
16E\	.
16A\JJ	.
*Xrep	*
*rep	*
!	!LO:N:vis=8
16C#\LL	4ff#X\J
16A\	.
16E\	.
16A\JJ	.
*Xrep	*
=30	=30
*rep	*
16C#\LL	8aa\L
16A\	.
16E\	8gg\J
16A\JJ	.
*Xrep	*
*rep	*
16C#\LL	4.gg\
16A\	.
16E\	.
16A\JJ	.
*Xrep	*
*rep	*
16C#\LL	.
16A\	.
16E\	8bb\
16A\JJ	.
*Xrep	*
=31	=31
16D\LL	8ddd\L
16A\	.
16F#\	8ccc#\
16A\JJ	.
*rep	*
16D\LL	8bb\
16A\	.
16F#\	8aa\
16A\JJ	.
*Xrep	*
*rep	*
16D\LL	8gg\
16A\	.
16F#\	8ff#\J
16A\JJ	.
*Xrep	*
=32	=32
!LO:TX:a:t=P:problem:mixed beam	!
8A\L	8ff#\L
8AA/J	8ee\J
.	8qee/
8r	2dd\
8AA/	.
!LO:TX:a:t=P:problem:mixed beam	!
8D\L	.
8DD/J	.
=33:|!|:	=33:|!|:
8F#L 8D\	(>8aa\L
8A\J	8gg\J)
*rep	*
8F#L 8D\	8ff#\L|
8A\J	8ff#\J|
*Xrep	*
8EL 8C#\	8bb\L
8A\J	8aa\J
!!LO:LB:g=original
=34	=34
*rep	*
8F#L 8D\	(>8aa\L
8A\J	8gg\J)
*Xrep	*
*rep	*
8F#L 8D\	4.ggT>\
8A\J	.
*Xrep	*
*rep	*
8EL 8C#\	.
8A\J	8r
*Xrep	*
=35	=35
*rep	*
8F#L 8D\	(>8gg\L
8A\J	8ff#\J)
*Xrep	*
*rep	*
8F#L 8D\	8ee\L
8A\J	8dd\J
*Xrep	*
*rep	*
8EL 8C#\	(>8aa\L
8A\J	8gg\J)
*Xrep	*
=36	=36
8F#L 8D\	8gg\L
8A\J	8ff#\J
*rep	*
8F#L 8D\	4.ff#\
8A\J	.
*Xrep	*
*rep	*
8F#L 8D\	.
8A\J	8r
*Xrep	*
=37	=37
8EL 8C#\	8ff#\L
8A\J	8ee\
*rep	*
8EL 8C#\	8ee\
8A\J	8eeT>\J
*Xrep	*
*rep	*
8EL 8C#\	8ee\L
8A\J	8ff#\J
*Xrep	*
=38	=38
8F#L 8D\	8aa\L
8A\J	8gg\J
8GL 8D\	4.gg\
8B\J	.
*rep	*
8GL 8D\	.
8B\J	8ccc#\
*Xrep	*
=39	=39
*rep	*
8F#L 8D\	8ddd\L
!	!LO:TX:a:t=c
!	!LO:SIC:s=8ccc#
8A\J	8ddd\
*Xrep	*
*rep	*
8GL 8D\	8bb\
8B\J	8aa\
*Xrep	*
*rep	*
8GL 8D\	8gg\
8B\J	8ff#\J
*Xrep	*
=40	=40
!LO:TX:a:t=P:problem:mixed beam	!
8A\L	8ff#\L
8AA/J	8ee\J
.	8qee/
8r	2dd\
8AA/	.
!LO:TX:a:t=P:problem:mixed beam	!
8D\L	.
8DD/J	.
!	!LO:TX:b:i:t=Trio Da Capo
!	!LO:TX:b:t=P:problem:komentarz za kreską pomiędzy pięcioliniami
==	==
*-	*-
!!!system-decoration: [(s1,s2)]
!!!RDF**kern: > = above
!!!RDF**kern: < = below
!!!EED: Mateusz Mrugas
!!!EST: 2020-12-13
!!!ENC: Marta Chmielewska
!!!END: 2020-06-18
!!!RDF**kern: | = vertical stroke
